packages/IcoMoon/src/TerminalIcon/index.svg

<svg version="1.1" xmlns="http://www.w3.org/2000/svg" width="16" height="16" viewBox="0 0 16 16">
<path d="M0 1v14h16v-14h-16zM15 14h-14v-12h14v12zM14 3h-12v10h12v-10zM7 8h-1v1h-1v1h-1v-1h1v-1h1v-1h-1v-1h-1v-1h1v1h1v1h1v1zM11 10h-3v-1h3v1z"></path>
</svg>

<svg xmlns="http://www.w3.org/2000/svg" viewBox="0 0 16 16">
  <path d="M0 1v14h16V1H0zm15 13H1V2h14v12zM14 3H2v10h12V3zM7 8H6v1H5v1H4V9h1V8h1V7H5V6H4V5h1v1h1v1h1v1zm4 2H8V9h3v1z"/>
</svg>
